!!!COM: Palestrina, Giovanni Perluigi da
!!!OPR: Missa L'homme arme (1570)
!!!OMD: Sanctus
!!!OTL: Hosanna
**kern	**kern	**kern	**kern	**kern
*Ibass	*Itenor	*Itenor	*Icalto	*Icant
!Bassus	!Tenor 2	!Tenor 1	!Altus	!Cantus
*clefF4	*clefGv2	*clefGv2	*clefG2	*clefG2
*k[]	*k[]	*k[]	*k[]	*k[]
*G:mix	*G:mix	*G:mix	*G:mix	*G:mix
*M3/2	*M3/2	*M3/2	*M3/2	*M3/2
=74	=74	=74	=74	=74
1G	1g	1r	1r	1r
2G	2g	2r	2r	2r
=75	=75	=75	=75	=75
1c	2e	1r	1r	1r
.	2.a	.	.	.
2c	.	2r	2r	2r
.	4g	.	.	.
=76	=76	=76	=76	=76
2B	2.g	1r	1r	1r
1A	.	.	.	.
.	8f	.	.	.
.	8e	.	.	.
.	2f#	2r	2r	2r
=77	=77	=77	=77	=77
1.G	2g	1r	1d	1dd
.	2r	.	.	.
.	2G	2r	2d	2dd
=78	=78	=78	=78	=78
1r	2B	1r	1g	2b
.	2.c	.	.	2.ee
2r	.	2r	2g	.
.	4B	.	.	4dd
=79	=79	=79	=79	=79
1r	2d	1r	2f	2.dd
.	1A	.	1e	.
.	.	.	.	8cc
.	.	.	.	8b
2r	.	2r	.	2cc#
=80	=80	=80	=80	=80
1r	1.d	1G	2d	2.dd
.	.	.	2g	.
.	.	.	.	4cc
2r	.	2G	2g	4b
.	.	.	.	4a
=81	=81	=81	=81	=81
1r	1r	1c	2e	2g
.	.	.	2.a	2cc
2r	2r	2c	.	2ee
.	.	.	4g	.
=82	=82	=82	=82	=82
2r	1d	2B	2g	2.dd
2D	.	1A	4f	.
.	.	.	4e	8cc
.	.	.	.	8b
2D	2d	.	2f#	2a
=83	=83	=83	=83	=83
1G	2B	1G	1g	1.b
.	2.e	.	.	.
2G	.	2r	2r	.
.	4d	.	.	.
=84	=84	=84	=84	=84
2F	2.d	1r	2a	1r
1E	.	.	2g	.
.	8c	.	.	.
.	8B	.	.	.
.	2c#	2r	2e	2r
=85	=85	=85	=85	=85
1.D	1d	2r	1f#	1a
.	.	2d	.	.
.	2r	2d	2f#	2a
=86	=86	=86	=86	=86
1r	1r	1G	1g	2b
.	.	.	.	2.dd
2r	2r	2d	2f	.
.	.	.	.	4cc
=87	=87	=87	=87	=87
1r	1r	2d	4d	2b
.	.	.	4e	.
.	.	2d	4f	4a
.	.	.	4d	4g
2r	2r	2c	4e	2a
.	.	.	4f#	.
=88	=88	=88	=88	=88
1r	2d	2B	1g	2b
.	2e	1A	.	1cc
2r	2c	.	2f#	.
=89	=89	=89	=89	=89
2r	1d	[1.G	[1.g	2.b
2G	.	.	.	.
.	.	.	.	4cc
2G	2B	.	.	2dd
=90	=90	=90	=90	=90
1C	1c	1.G]	1.g]	2ee
.	.	.	.	2cc
2G	4B	.	.	[2dd
.	4A	.	.	.
=91	=91	=91	=91	=91
2G	4B	1r	1g	2dd]
.	4c	.	.	.
2G	2.d	.	.	2b
2F	.	2r	2a	2cc
.	4c	.	.	.
=92	=92	=92	=92	=92
2E	1c	1r	2g	2r
1D	.	.	1f	2dd
.	2B	2r	.	2dd
=93	=93	=93	=93	=93
1.C	1.c	1g	1e	2.ee
.	.	.	.	4dd
.	.	2g	2r	4cc
.	.	.	.	4b
=94	=94	=94	=94	=94
1r	1r	1f	1d	2.a
.	.	.	.	4g
2r	2r	2f	2d	2a
=95	=95	=95	=95	=95
1c	1r	1g	2.e	1g
.	.	.	4d	.
2c	2r	2g	4e	2r
.	.	.	4f	.
=96	=96	=96	=96	=96
1B	1G	1.d	2.g	1dd
.	.	.	8f	.
.	.	.	8e	.
2B	2G	.	2d	2dd
=97	=97	=97	=97	=97
1c	2.g	1r	2c	2.ee
.	.	.	2cc	.
.	4f	.	.	4dd
2c	2e	2r	2cc	4ee
.	.	.	.	4ff
=98	=98	=98	=98	=98
1G	2d	1g	2.b	2.gg
.	2e	.	.	.
.	.	.	8a	4ff
.	.	.	8b	.
2r	2c	2g	2cc	2ee
=99	=99	=99	=99	=99
1r	1d	1f	2a	2.dd
.	.	.	2d	.
.	.	.	.	8cc
.	.	.	.	8b
2r	2r	2f	2d	2a
=100	=100	=100	=100	=100
1c	1r	1g	2.e	1g
.	.	.	4d	.
2c	2r	2g	4e	2r
.	.	.	4f	.
=101	=101	=101	=101	=101
1B	1G	1.d	2.g	1dd
.	.	.	8f	.
.	.	.	8e	.
2B	2G	.	2d	2dd
=102	=102	=102	=102	=102
1c	2.g	1r	2c	2.ee
.	.	.	2cc	.
.	4f	.	.	4dd
2c	2e	2r	2cc	4ee
.	.	.	.	4ff
=103	=103	=103	=103	=103
1.G	1.d	1g	1b	2.gg
.	.	.	.	8ff
.	.	.	.	8ee
.	.	2g	2b	2dd
=104	=104	=104	=104	=104
1r	1r	1a	1cc	2ff
.	.	.	.	2.ee
2r	2r	2g	2b	.
.	.	.	.	4dd
=105	=105	=105	=105	=105
1r	2r	2f	1.a	1dd
.	2A	1e	.	.
2r	2A	.	.	2cc#
=106	=106	=106	=106	=106
1G	2.B	1.d	2r	1.dd
.	.	.	2g	.
.	4c	.	.	.
2G	2d	.	2g	.
=107	=107	=107	=107	=107
1A	1c	1r	2f	1r
.	.	.	4e	.
.	.	.	4d	.
2G	2B	2r	2e	2r
=108	=108	=108	=108	=108
2F	2A	1r	2f	1cc
1E	1G	.	2g	.
.	.	2r	2e	2cc
=109	=109	=109	=109	=109
2.D	1A	1r	2.f	1dd
4E	.	.	4g	.
2F	2r	2r	2a	2cc
=110	=110	=110	=110	=110
2G	1d	1r	1g	2b
1D	.	.	.	1a
.	2d	2r	2f#	.
=111	=111	=111	=111	=111
1r	1e	1r	2.g	4g
.	.	.	.	4a
.	.	.	.	4b
.	.	.	4e	4g
2r	2d	2r	2f	4a
.	.	.	.	4b
=112	=112	=112	=112	=112
1r	2c	1g	2e	2cc
.	1B	.	1d	1dd
2r	.	2g	.	.
=113	=113	=113	=113	=113
1r	2.A	1a	2e	2.cc
.	.	.	2.cc	.
.	4B	.	.	4dd
2r	2c	2g	.	2ee
.	.	.	4b	.
=114	=114	=114	=114	=114
1r	2d	2f	4a	1dd
.	.	.	4g	.
.	1A	1e	1a	.
2r	.	.	.	2cc#
=115	=115	=115	=115	=115
1G	1B	1.d	2.g	2dd
.	.	.	.	2g
.	.	.	4f	.
2G	2B	.	4d	2b
.	.	.	4e	.
=116	=116	=116	=116	=116
1A	1c	1r	2f	4a
.	.	.	.	4b
.	.	.	2e	4cc
.	.	.	.	4dd
2G	2B	2r	2g	2ee
=117	=117	=117	=117	=117
2F	2A	1c	2a	2ff
1E	1e	.	1g	2gg
.	.	2c	.	2ee
=118	=118	=118	=118	=118
2D	2A	1d	2f	1ff
2BB-	2B-	.	2d	.
2C	[2G	2c	2e	2ee
=119	=119	=119	=119	=119
2G	2G]	2B-	1g	1dd
1D	1d	1A	.	.
.	.	.	2f#	2dd
=120	=120	=120	=120	=120
1.G	1.d	1.G	1.g	1.b
==	==	==	==	==
*-	*-	*-	*-	*-
!!!CDT: 1525/^1526/-1594/2/2
!!!OCY: Italia
!!!AGN: Mass (Tenor)
!!!AST: renaissance, vocal
!!!ASW: Popular Song
!!!PWK: Masses, Book 3
!!!RNB: Cadence finals: C,D
!!!YOR: Le Opere Complete, v. 6, p. 97
!!!YOO: Rome, Italy: Fratelli Scalera
!!!END: 1992//
!!!EED: John Miller
!!!YEC: Copyright 2000, John Miller
!!!YEN: United States of America
!!!YEM: Rights to all derivative electronic formats reserved.
!!!YEM: Refer to licensing agreement for further details.
!!!YEM: This file must be accompanied by the licensing agreement.
!!!YEM: A copy of the licensing agreement may be found at http://www.music-cog.ohio-state.edu/HumdrumDatabases/Palestrina/license.txt
!!!EMD: converted to Humdrum by Bret Aarden
